!!!CDT:
!!!PTL: Madrigali a 5, 6, 7 & 8 voci
!!!PPP: Augsburg
!!!PPR: Valentin Schönigk
!!!PDT: 1596
!!!PUB-format:
!!!RISM: H 2339
!!!rime: 265
!!!AGN: Madrigal
!!!SCT: Trm0265a
!!!SCA: Trm0265a
!!!original-voices: 6
!!!extant-voices: 6
!!!complete: Y
!!!final: G
!!!COM: Hassler, Hans Leo
!!!OTL: Mentre la donna mia cangiando aspetto
**kern	**text	**kern	**text	**kern	**text	**kern	**text	**kern	**text	**kern	**text
*part6	*part6	*part5	*part5	*part4	*part4	*part3	*part3	*part2	*part2	*part1	*part1
*staff6	*staff6	*staff5	*staff5	*staff4	*staff4	*staff3	*staff3	*staff2	*staff2	*staff1	*staff1
*I"Basso	*	*I"Tenore	*	*I"Quinto	*	*I"Alto	*	*I"Sesto	*	*I"Canto	*
*I'B	*	*I'T	*	*I'V	*	*I'A	*	*I'VI	*	*I'C	*
*oclefF3	*	*oclefC3	*	*oclefC2	*	*oclefC2	*	*oclefG2	*	*oclefG2	*
*clefF4	*	*clefGv2	*	*clefG2	*	*clefG2	*	*clefG2	*	*clefG2	*
*k[b-]	*	*k[b-]	*	*k[b-]	*	*k[b-]	*	*k[b-]	*	*k[b-]	*
*F:	*	*F:	*	*F:	*	*F:	*	*F:	*	*F:	*
*omet(C)	*	*omet(C)	*	*omet(C)	*	*omet(C)	*	*omet(C)	*	*omet(C)	*
*M4/2	*	*M4/2	*	*M4/2	*	*M4/2	*	*M4/2	*	*M4/2	*
=1	=1	=1	=1	=1	=1	=1	=1	=1	=1	=1	=1
!!LO:TX:a:t=a. 6.
0r	.	2B-y	Men-	2b-y	Men-	0r	.	2dd	Men-	0r	.
.	.	2f	-tre	2a	-tre	.	.	2cc	-tre	.	.
.	.	4d	la	4b-y	la	.	.	4dd	la	.	.
.	.	2e-i	Don-	2g	Don-	.	.	2b-y	Don-	.	.
.	.	4c	-na	4a	-na	.	.	4cc	-na	.	.
=2	=2	=2	=2	=2	=2	=2	=2	=2	=2	=2	=2
0r	.	1B-y	mia,	2b-y	mia,	2r	.	1dd	mia,	2r	.
.	.	.	.	4r	.	2b-y	Men-	.	.	2dd	Men-
.	.	.	.	4B-y	<Men-	.	.	.	.	.	.
.	.	1r	.	2f	-tre	2a	-tre	1r	.	2cc	-tre
.	.	.	.	4d	la	4b-y	la	.	.	4dd	la
.	.	.	.	[4e-X	Don-	[4g	Don-	.	.	[4b-y	Don-
=3	=3	=3	=3	=3	=3	=3	=3	=3	=3	=3	=3
1r	.	0r	.	4e-]	.	4g]	.	1r	.	4b-]	.
.	.	.	.	4c	-na	4a	-na	.	.	4cc	-na
.	.	.	.	2B-y	mia>	2b-y	mia	.	.	2dd	mia
2d	Men-	.	.	1r	.	4r	.	2ff	<Men-	1r	.
.	.	.	.	.	.	4a	can-	.	.	.	.
2c	-tre	.	.	.	.	8ccL	-gian-	2ee	-tre	.	.
.	.	.	.	.	.	8b-y	.	.	.	.	.
.	.	.	.	.	.	8a	.	.	.	.	.
.	.	.	.	.	.	8gJ	.	.	.	.	.
=4	=4	=4	=4	=4	=4	=4	=4	=4	=4	=4	=4
4d	la	0r	.	1r	.	4f	.	4ff	la	1r	.
2B-y	Don-	.	.	.	.	4b-y	-do a-	2dd	Don-	.	.
.	.	.	.	.	.	2g	-spet-	.	.	.	.
4c	-na	.	.	.	.	.	.	4ee	-na	.	.
4d	mia	.	.	4r	.	4f	-to	2ff	mia>	4r	.
4d	can-	.	.	4d	Di	4a	Di	.	.	4ff	can-
8cL	-gian-	.	.	4enXi	bian-	4cc	bian-	2r	.	8eeL	-gian-
8B-y	.	.	.	.	.	.	.	.	.	8dd	.
8A	.	.	.	4e	-co	4cc	-co	.	.	8cc	.
8GJ	.	.	.	.	.	.	.	.	.	8b-yJ	.
=5	=5	=5	=5	=5	=5	=5	=5	=5	=5	=5	=5
4F	.	1r	.	4f	nel	4cc	nel	0r	.	4a	.
4B-y	.	.	.	4d	ver-	4f	ver-	.	.	2dd	-do a-
4G	-do a-	.	.	8gL	-mi-	4b-y	-mi-	.	.	.	.
.	.	.	.	8fJ	.	.	.	.	.	.	.
4A	-spet-	.	.	4e	.	4a	-glio,	.	.	4cc#X	-spet-
2D	-to	4r	.	4d	-glio,	1r	.	.	.	4dd	-to,
.	.	4d	<Men-	4a	can-	.	.	.	.	4ff	Men-
2r	.	2c	-tre	8ccL	-gian-	.	.	.	.	2ee	-tre
.	.	.	.	8b-y	.	.	.	.	.	.	.
.	.	.	.	8a	.	.	.	.	.	.	.
.	.	.	.	8gJ	.	.	.	.	.	.	.
=6	=6	=6	=6	=6	=6	=6	=6	=6	=6	=6	=6
0r	.	4d	la	4f	-do a-	1r	.	1r	.	4ff	la
.	.	2B-y	Don-	4b-y	-spet-	.	.	.	.	2dd	Don-
.	.	.	.	2g	.	.	.	.	.	.	.
.	.	4c	-na	.	.	.	.	.	.	4ee	-na
.	.	4d	mia>	4f	-to	4r	.	4r	.	2ff	mia
.	.	4d	can-	4a	Di	4d	Di	4ff	can-	.	.
.	.	8cL	-gian-	4cc	bian-	4e	bian-	8eeL	-gian-	2r	.
.	.	8B-y	.	.	.	.	.	8dd	.	.	.
.	.	8A	.	4cc	-co	4e	-co	8cc	.	.	.
.	.	8GJ	.	.	.	.	.	8b-yJ	.	.	.
=7	=7	=7	=7	=7	=7	=7	=7	=7	=7	=7	=7
1r	.	4F	.	4cc	nel	4f	nel	4a	.	0r	.
.	.	4B-y	-do a-	4f	ver-	4d	ver-	2dd	-do a-	.	.
.	.	4G	-spet-	4b-y	-mi-	8gL	-mi-	.	.	.	.
.	.	.	.	.	.	8fJ	.	.	.	.	.
.	.	4A	.	4a	-glio	4e	.	4cc#i	-spet-	.	.
4r	.	2D	-o	4r	.	4d	-glio	2dd	-to	.	.
4.d	Mo-	.	.	4.f	Mo-	4.a	Mo-	.	.	.	.
.	.	2r	.	.	.	.	.	2r	.	.	.
8d	-stra	.	.	8f	-stra	8a	-stra	.	.	.	.
4A	l'in-	.	.	4f	l'in-	4a	l'in-	.	.	.	.
=8	=8	=8	=8	=8	=8	=8	=8	=8	=8	=8	=8
4c	-ter-	0r	.	4e	-ter-	4g	-ter-	0r	.	0r	.
4d	-no af-	.	.	4d	-no af-	4f	-no af-	.	.	.	.
8DL	-fet-	.	.	4.f	-fet-	4.a	-fet-	.	.	.	.
8E	.	.	.	.	.	.	.	.	.	.	.
8F	.	.	.	.	.	.	.	.	.	.	.
8GJ	.	.	.	16eL	.	16gL	.	.	.	.	.
.	.	.	.	16dJ	.	16fJ	.	.	.	.	.
1A	.	.	.	4c#X	.	4e	.	.	.	.	.
.	.	.	.	2d	.	4d	.	.	.	.	.
.	.	.	.	.	.	2e	.	.	.	.	.
.	.	.	.	4c#i	.	.	.	.	.	.	.
=9	=9	=9	=9	=9	=9	=9	=9	=9	=9	=9	=9
4D	-to,	4r	.	2d	-to,	4d	-to,	0r	.	4r	.
4G	can-	4d	Di	.	.	4b-y	can-	.	.	4g	Di
8FL	-gian-	4f	bian-	2r	.	8aL	-gian-	.	.	4a	bian-
8E	.	.	.	.	.	8g	.	.	.	.	.
8D	.	4f	-co	.	.	8f	.	.	.	4a	-co
8CJ	.	.	.	.	.	8eJ	.	.	.	.	.
4BB-y	.	4f	nel	1r	.	4d	.	.	.	4b-y	nel
4E-i	.	4B-y	ver-	.	.	2g	-do a-	.	.	4g	ver-
4C	-do a-	2A	-mi-	.	.	.	.	.	.	8ccL	-mi-
.	.	.	.	.	.	.	.	.	.	8b-yJ	.
4D	-spet-	.	.	.	.	4f#X	-spet-	.	.	4a	.
=10	=10	=10	=10	=10	=10	=10	=10	=10	=10	=10	=10
1GG	-to,	4BnX	-glio	0r	.	2g	-to,	4r	.	4g	-glio
.	.	4.g	Mo-	.	.	.	.	4.b-y	Mo-	4.dd	Mo-
.	.	.	.	.	.	2r	.	.	.	.	.
.	.	8g	-stra	.	.	.	.	8b-y	-stra	8dd	-stra
.	.	4d	l'in-	.	.	.	.	4b-y	l'in-	4dd	l'in-
1r	.	4f	-ter-	.	.	1r	.	4a	-ter-	4cc	-ter-
.	.	4g	-no af-	.	.	.	.	4g	-no af-	4b-y	-no af-
.	.	8GL	-fet-	.	.	.	.	4.b-y	-fet-	4.dd	-fet-
.	.	8A	.	.	.	.	.	.	.	.	.
.	.	8B-X	.	.	.	.	.	.	.	.	.
.	.	8cJ	.	.	.	.	.	16aL	.	16ccL	.
.	.	.	.	.	.	.	.	16gJ	.	16b-yJ	.
=11	=11	=11	=11	=11	=11	=11	=11	=11	=11	=11	=11
0r	.	1d	.	1r	.	0r	.	4f#X	.	4a	.
.	.	.	.	.	.	.	.	2g	.	4g	.
.	.	.	.	.	.	.	.	.	.	2a	.
.	.	.	.	.	.	.	.	4f#i	.	.	.
.	.	2G	-to,	4r	.	.	.	4g	-to,	4g	-to,
.	.	.	.	4B-y	Men-	.	.	4dd	Men-	4b-y	Men-
.	.	2r	.	2f	-tre	.	.	2cc	-tre	2a	-tre
=12	=12	=12	=12	=12	=12	=12	=12	=12	=12	=12	=12
1r	.	1r	.	4d	la	1r	.	4dd	la	4b-y	la
.	.	.	.	2e-X	Don-	.	.	2b-y	Don-	2g	Don-
.	.	.	.	4c	-na	.	.	4cc	-na	4a	-na
4r	.	4r	.	2B-y	mia	4r	.	4dd	mia	2b-y	mia,
4d	can-	4d	Di	.	.	4f	Di	4ff	can-	.	.
8cL	-gian-	4e	bian-	2r	.	4cc	bian-	8eeL	-gian-	2r	.
8B-y	.	.	.	.	.	.	.	8dd	.	.	.
8A	.	4e	-co	.	.	4cc	-co	8cc	.	.	.
8GJ	.	.	.	.	.	.	.	8b-yJ	.	.	.
=13	=13	=13	=13	=13	=13	=13	=13	=13	=13	=13	=13
4F	.	4f	nel	0r	.	4cc	nel	4a	.	1r	.
4B-y	-do a-	4d	ver-	.	.	4f	ver-	2dd	-do a-	.	.
4G	-spet-	8gL	-mi-	.	.	4b-y	-mi-	.	.	.	.
.	.	8fJ	.	.	.	.	.	.	.	.	.
4A	.	4e	.	.	.	4a	-glio,	4cc#i	-spet-	.	.
4D	-to,	2d	-glio,	.	.	4r	.	2dd	-to	4r	.
4d	Men-	.	.	.	.	4a	can-	.	.	4ff	<Men-
2c	-tre	2r	.	.	.	8ccL	-gian-	2r	.	2ee	-tre
.	.	.	.	.	.	8b-y	.	.	.	.	.
.	.	.	.	.	.	8a	.	.	.	.	.
.	.	.	.	.	.	8gJ	.	.	.	.	.
=14	=14	=14	=14	=14	=14	=14	=14	=14	=14	=14	=14
4d	la	1r	.	1r	.	4f	.	1r	.	4ff	la
2B-y	Don-	.	.	.	.	4b-y	-do a-	.	.	2dd	Don-
.	.	.	.	.	.	2g	-spet-	.	.	.	.
4c	-na	.	.	.	.	.	.	.	.	4ee	-na
2d	mia	4r	.	4r	.	2f	-to	4r	.	4ff	mia>
.	.	4d	can-	4a	Di	.	.	4dd	Di	4ff	can-
2r	.	8cL	-gian-	4cc	bian-	2r	.	4ee	bian-	8eeL	-gian-
.	.	8B-y	.	.	.	.	.	.	.	8dd	.
.	.	8A	.	4cc	-co	.	.	4ee	-co	8cc	.
.	.	8GJ	.	.	.	.	.	.	.	8b-yJ	.
=15	=15	=15	=15	=15	=15	=15	=15	=15	=15	=15	=15
1r	.	4F	.	4cc	nel	1r	.	4ff	nel	4a	.
.	.	4B-y	-do a-	4f	ver-	.	.	4dd	ver-	2dd	-do a-
.	.	4G	-spet-	4b-y	-mi-	.	.	8ggL	-mi-	.	.
.	.	.	.	.	.	.	.	8ffJ	.	.	.
.	.	4A	.	4a	-glio,	.	.	4ee	.	4cc#i	-spet-
4r	.	2D	-to	4r	.	4r	.	4dd	-glio,	2dd	-to
4D	Di	.	.	4a	can-	4f	Di	4ff	can-	.	.
4E	bian-	2r	.	8gL	-gian-	4g	bian-	8eeL	-gian-	2r	.
.	.	.	.	8f	.	.	.	8dd	.	.	.
4E	-co	.	.	8e	.	4g	-co	8cc	.	.	.
.	.	.	.	8dJ	.	.	.	8b-yJ	.	.	.
=16	=16	=16	=16	=16	=16	=16	=16	=16	=16	=16	=16
4F	nel	1r	.	4c	.	4a	nel	4a	.	0r	.
4D	ver-	.	.	4f	-do a-	4f	ver-	2dd	-do a-	.	.
8GL	-mi-	.	.	2g	-spet-	8b-yL	-mi-	.	.	.	.
8FJ	.	.	.	.	.	8aJ	.	.	.	.	.
4E	.	.	.	.	.	4g	.	4cc#i	-spet-	.	.
4D	-glio	4r	.	2a	-to,	4f	-glio	2dd	-to,	.	.
4.d	Mo-	4.f	Mo-	.	.	4.a	Mo-	.	.	.	.
.	.	.	.	2r	.	.	.	2r	.	.	.
8d	-stra	8f	-stra	.	.	8a	-stra	.	.	.	.
4A	l'in-	4f	l'in-	.	.	4a	l'in-	.	.	.	.
=17	=17	=17	=17	=17	=17	=17	=17	=17	=17	=17	=17
4c	-ter-	4e	-ter-	0r	.	4g	-ter-	0r	.	0r	.
4d	-no af-	4d	-no af-	.	.	4f	-no af-	.	.	.	.
8DL	-fet-	4.f	-fet-	.	.	4.a	-fet-	.	.	.	.
8E	.	.	.	.	.	.	.	.	.	.	.
8F	.	.	.	.	.	.	.	.	.	.	.
8GJ	.	16eL	.	.	.	16gL	.	.	.	.	.
.	.	16dJ	.	.	.	16fJ	.	.	.	.	.
1A	.	4c#X	.	.	.	4e	.	.	.	.	.
.	.	2d	.	.	.	4d	.	.	.	.	.
.	.	.	.	.	.	2e	.	.	.	.	.
.	.	4c#i	.	.	.	.	.	.	.	.	.
=18	=18	=18	=18	=18	=18	=18	=18	=18	=18	=18	=18
4D	-to,	2d	-to,	4r	.	2d	-to,	4r	.	4r	.
4G	can-	.	.	4b-y	can-	.	.	4g	Di	4dd	Di
8FL	-gian-	2r	.	8aL	-gian-	2r	.	4a	bian-	4ff	bian-
8E	.	.	.	8g	.	.	.	.	.	.	.
8D	.	.	.	8f	.	.	.	4a	-co	4ff	-co
8CJ	.	.	.	8eJ	.	.	.	.	.	.	.
4BB-y	.	1r	.	4d	.	1r	.	4b-y	nel	4ff	nel
4E-i	-do a-	.	.	2g	-do a-	.	.	4g	ver-	4b-y	ver-
4C	-spet-	.	.	.	.	.	.	8ccL	-mi-	4ee-i	-mi-
.	.	.	.	.	.	.	.	8b-yJ	.	.	.
4D	.	.	.	4f#i	-spet-	.	.	4a	.	4dd	-glio,
=19	=19	=19	=19	=19	=19	=19	=19	=19	=19	=19	=19
4GG	-to	0r	.	2g	-to	4r	.	4g	-glio,	4r	.
4G	Di	.	.	.	.	4g	can-	4dd	<Di	4b-y	<Di
4A	bian-	.	.	2r	.	8ccL	-gian-	4.ff	bian-	4a	bian-
.	.	.	.	.	.	8b-y	.	.	.	.	.
4A	-co	.	.	.	.	8a	.	.	.	4cc	-co
.	.	.	.	.	.	8gJ	.	8ee	-co	.	.
4B-y	nel	.	.	1r	.	4f	.	4dd	nel	4b-y	nel
4G	ver-	.	.	.	.	2g	-do a-	4dd	ver-	4b-y	ver-
8cL	-mi-	.	.	.	.	.	.	2cc	-mi-	2a	-mi-
8B-yJ	.	.	.	.	.	.	.	.	.	.	.
4A	.	.	.	.	.	4f#i	-spet-	.	.	.	.
=20	=20	=20	=20	=20	=20	=20	=20	=20	=20	=20	=20
2G	-glio	4r	.	0r	.	2g	-to	4bnX	-glio>	4dd	-glio>
.	.	4.g	Mo-	.	.	.	.	4.dd	Mo-	4.b-y	Mo-
2r	.	.	.	.	.	2r	.	.	.	.	.
.	.	8g	-stra	.	.	.	.	8dd	-stra	8b-y	-stra
.	.	4d	l'in-	.	.	.	.	4dd	l'in-	4b-y	l'in-
1r	.	4f	-ter-	.	.	1r	.	4cc	-ter-	4a	-ter-
.	.	4g	-no af-	.	.	.	.	4b-i	-no af-	4g	-no af-
.	.	8GL	-fet-	.	.	.	.	4.dd	-fet-	4.b-y	-fet-
.	.	8A	.	.	.	.	.	.	.	.	.
.	.	8B-y	.	.	.	.	.	.	.	.	.
.	.	8cJ	.	.	.	.	.	16ccL	.	16aL	.
.	.	.	.	.	.	.	.	16b-yJ	.	16gJ	.
=21	=21	=21	=21	=21	=21	=21	=21	=21	=21	=21	=21
1r	.	1d	-to,	1r	.	1r	.	4a	.	4f#X	.
.	.	.	.	.	.	.	.	4g	.	2g	.
.	.	.	.	.	.	.	.	2a	.	.	.
.	.	.	.	.	.	.	.	.	.	4f#i	.
4r	.	4G	<Mo-	4r	.	4r	.	2g	-to	2g	-to
4.G	Mo-	4.d	-stra	4.g	Mo-	4.b-y	Mo-	.	.	.	.
.	.	.	.	.	.	.	.	2r	.	2r	.
8G	-stra	8d	l'in-	8g	-stra	8b-y	-stra	.	.	.	.
4B-y	l'in-	4d	-ter-	4f	l'in-	4b-y	l'in-	.	.	.	.
=22	=22	=22	=22	=22	=22	=22	=22	=22	=22	=22	=22
4F	-ter-	4c	-no af-	4f	-ter-	4a	-ter-	0r	.	0r	.
4G	-no af-	4B-y	-fet-	4d	-no af-	4g	-no af-	.	.	.	.
4.D	-fet-	4.d	.	4.f	-fet-	8b-yL	-fet-	.	.	.	.
.	.	.	.	.	.	8a	.	.	.	.	.
.	.	.	.	.	.	8f	.	.	.	.	.
8E	.	16cL	.	8e	.	8gJ	.	.	.	.	.
.	.	16B-yJ	.	.	.	.	.	.	.	.	.
4F#X	.	4A	.	2d	.	4a	.	.	.	.	.
4G	.	4B-y	.	.	.	2g	.	.	.	.	.
2D	.	2A	.	2d	-to	.	.	.	.	.	.
.	.	.	.	.	.	4f#i	.	.	.	.	.
=23	=23	=23	=23	=23	=23	=23	=23	=23	=23	=23	=23
1G	-to	1G	-to	2r	.	1g	-to	2r	.	2r	.
.	.	.	.	2g	E	.	.	2b-y	E	2dd	E
1r	.	1r	.	4f#X	par	1r	.	4a	par	4dd	par
.	.	.	.	4g	hor	.	.	4b-y	hor	4dd	hor
.	.	.	.	4e	fre-	.	.	4g	fre-	4cc	fre-
.	.	.	.	4fnXi	-sca	.	.	4a	-sca	4dd	-sca
=24	=24	=24	=24	=24	=24	=24	=24	=24	=24	=24	=24
1r	.	1r	.	4.g	ro-	1r	.	4.b-y	ro-	8ee-XL	ro-
.	.	.	.	.	.	.	.	.	.	8ddJ	.
.	.	.	.	.	.	.	.	.	.	2dd	.
.	.	.	.	8f	.	.	.	8a	.	.	.
.	.	.	.	2e-X	.	.	.	2g	.	.	.
.	.	.	.	.	.	.	.	.	.	4cc	.
4r	.	4r	.	2d	-sa,	4r	.	2a	-sa,	1dd	-sa,
4d	hor	4f	hor	.	.	4a	hor	.	.	.	.
4B-y	bian-	4d	bian-	2r	.	4b-y	bian-	2r	.	.	.
4G	-co	4g	-co	.	.	4b-y	-co	.	.	.	.
=25	=25	=25	=25	=25	=25	=25	=25	=25	=25	=25	=25
2d	gi-	2f#X	gi-	2r	.	2a	gi-	2r	.	2r	.
2G	-glio,	2g	-glio,	4r	.	2g	-glio,	4r	.	4r	.
.	.	.	.	4g	hor	.	.	4b-y	hor	4dd	hor
1r	.	1r	.	4f	bian-	1r	.	4a	bian-	4ff	bian-
.	.	.	.	4d	-co	.	.	4dd	-co	4ff	-co
.	.	.	.	2a	gi-	.	.	2cc#X	gi-	2eenXi	gi-
=26	=26	=26	=26	=26	=26	=26	=26	=26	=26	=26	=26
2r	.	2r	.	1d	-glio,	2r	.	1dd	-glio,	1dd	-glio,
2d	E	2fnXi	E	.	.	2a	E	.	.	.	.
4c#X	par	4e	par	1r	.	4a	par	1r	.	1r	.
4d	hor	4f	hor	.	.	4a	hor	.	.	.	.
4B-y	fre-	4d	fre-	.	.	4g	fre-	.	.	.	.
4cnXi	-sca	4e	-sca	.	.	4a	-sca	.	.	.	.
=27	=27	=27	=27	=27	=27	=27	=27	=27	=27	=27	=27
4.d	ro-	4.f	ro-	1r	.	8b-yL	ro-	1r	.	1r	.
.	.	.	.	.	.	8aJ	.	.	.	.	.
.	.	.	.	.	.	2a	.	.	.	.	.
8c	.	8e	.	.	.	.	.	.	.	.	.
2B-y	.	2d	.	.	.	.	.	.	.	.	.
.	.	.	.	.	.	4g	.	.	.	.	.
2A	-sa,	2e	-sa,	4r	.	1a	-sa,	4r	.	4r	.
.	.	.	.	4a	<hor	.	.	4ee	<hor	4cc	<hor
2r	.	2r	.	4f	bian-	.	.	4ff	bian-	4a	bian-
.	.	.	.	4d	-co	.	.	4ff	-co	4dd	-co
=28	=28	=28	=28	=28	=28	=28	=28	=28	=28	=28	=28
4r	.	4r	.	2a	gi-	4r	.	2ee	gi-	2cc#X	gi-
4A	hor	4A	hor	.	.	4e	hor	.	.	.	.
4F	bian-	4A	bian-	2d	-glio,>	4f	bian-	2dd	-glio,>	2dd	-glio,>
4D	-co	4d	-co	.	.	4f	-co	.	.	.	.
2A	gi-	2c#X	gi-	4r	.	2e	gi-	4r	.	4r	.
.	.	.	.	4a	<hor	.	.	4a	<hor	4ee	hor
2D	-glio,	2d	-glio,	4f	bian-	2d	-glio,	4a	bian-	4ff	bian-
.	.	.	.	4d	-co	.	.	4dd	-co	4ff	-co
=29	=29	=29	=29	=29	=29	=29	=29	=29	=29	=29	=29
1r	.	1r	.	2a	gi-	1r	.	2cc#X	gi-	2ee	gi-
.	.	.	.	2d	-glio,>	.	.	2dd	-glio,>	2dd	-glio,
1BB-y	Di-	1B-y	Di-	2r	.	1b-y	Di-	1dd	Di-	1ff	Di-
.	.	.	.	[2f	Di-	.	.	.	.	.	.
=30	=30	=30	=30	=30	=30	=30	=30	=30	=30	=30	=30
2BB-y	-co:	2B-y	-co:	2f]	.	2f	-co:	2b-y	-co:	2dd	-co:
2.F	"se	1c	"se	2f	-co:	2.a	"se	2.f	"se	2.cc	"se
.	.	.	.	2.c	"se	.	.	.	.	.	.
4F	co-	.	.	.	.	4a	co-	4f	co-	4cc	co-
2F	-sì	2F	co-	.	.	2a	-sì	2f	-sì	2cc	-sì
.	.	.	.	4f	co-	.	.	.	.	.	.
=31	=31	=31	=31	=31	=31	=31	=31	=31	=31	=31	=31
2F	mu-	1c	-sì	2f	-sì	2.cc	mu-	2a	mu-	2ff	mu-
2C	-ta il	.	.	2.g	mu-	.	.	2g	-ta il	2ee-X	-ta il
.	.	.	.	.	.	4cc	-ta il	.	.	.	.
2G	bel	2d	mu-	.	.	2g	bel	2b-y	bel	2dd	bel
.	.	.	.	4d	-ta il	.	.	.	.	.	.
2F#X	co-	2d	-ta il	4d	bel	2a	co-	[2a	co-	2dd	co-
.	.	.	.	4d	co-	.	.	.	.	.	.
=32	=32	=32	=32	=32	=32	=32	=32	=32	=32	=32	=32
1G	-lo-	2B-y	bel	0d	-lo-	1b-y	-lo-	2a]	.	1dd	-lo-
.	.	2G	co-	.	.	.	.	2.g	-lo-	.	.
1D	-re,	1A	-lo-	.	.	1a	-re,	.	.	1dd	-re,
.	.	.	.	.	.	.	.	8f#iL	.	.	.
.	.	.	.	.	.	.	.	8eJ	.	.	.
.	.	.	.	.	.	.	.	2f#i	.	.	.
=33	=33	=33	=33	=33	=33	=33	=33	=33	=33	=33	=33
4.B-y	Non	1G	-re,	1d	-re,	4.dd	Non	2g	-re,	0r	.
8A	è	.	.	.	.	8cc	è	.	.	.	.
4G	fer-	.	.	.	.	4b-y	fer-	2r	.	.	.
8F	-ma	.	.	.	.	8a	-ma	.	.	.	.
8E	nel	.	.	.	.	8g	nel	.	.	.	.
4D	co-	4.d	Non	1r	.	2f	co-	4.ff	Non	.	.
4D	-re,	.	.	.	.	.	.	.	.	.	.
.	.	8c	è	.	.	.	.	8ee	è	.	.
2r	.	4B-y	fer-	.	.	4f	-re,	4dd	fer-	.	.
.	.	8A	-ma	.	.	4f	nel	8cc	-ma	.	.
.	.	8G	nel	.	.	.	.	8b-y	nel	.	.
=34	=34	=34	=34	=34	=34	=34	=34	=34	=34	=34	=34
1r	.	4F	co-	4.f	Non	4cc	co-	2a	co-	4.aa	Non
.	.	4F	-re,	.	.	4a	-re,	.	.	.	.
.	.	.	.	8e	è	.	.	.	.	8gg	è
.	.	2r	.	4d	fer-	2r	.	2a	-re,	4ff	fer-
.	.	.	.	8c	-ma	.	.	.	.	8ee	-ma
.	.	.	.	8B-y	nel	.	.	.	.	8dd	nel
4.A	<Non	4.F	<Non	4A	co-	4.cc	Non	1r	.	2cc	co-
.	.	.	.	4A	-re,	.	.	.	.	.	.
8G	è	8G	è	.	.	8b-y	è	.	.	.	.
4F	fer-	4A	fer-	2r	.	4a	fer-	.	.	2cc	-re,
8E	-ma	8A	-ma	.	.	8g	-ma	.	.	.	.
8D	nel	8B-y	nel	.	.	8f	nel	.	.	.	.
=35	=35	=35	=35	=35	=35	=35	=35	=35	=35	=35	=35
2C	co-	4c	co-	4.cc	<Non	4e	co-	4.aa	<Non	1r	.
.	.	4c	-re,>	.	.	4e	-re,	.	.	.	.
.	.	.	.	8b-y	è	.	.	8gg	è	.	.
4D	-re,>	2r	.	4a	fer-	2r	.	4ff	fer-	.	.
4D	nel	.	.	8g	-ma	.	.	8ee	-ma	.	.
.	.	.	.	8f	nel	.	.	8dd	nel	.	.
[1A	co-	4.A	<Non	4e	co-	4.cc	<Non	4cc	co-	4.aa	<Non
.	.	.	.	4e	-re,>	.	.	4cc	-re;">	.	.
.	.	8B-y	è	.	.	8b-y	è	.	.	8gg	è
.	.	4c	fer-	4r	.	4a	fer-	2r	.	4ff	fer-
.	.	8c	-ma	4a	nel	8g	-ma	.	.	8ee	-ma
.	.	8d	nel	.	.	8f	nel	.	.	8dd	nel
=36	=36	=36	=36	=36	=36	=36	=36	=36	=36	=36	=36
1A]	.	1e	co-	4a	co-	4e	co-	1r	.	4cc#X	co-
.	.	.	.	8gL	.	8fL	.	.	.	2dd	.
.	.	.	.	8fJ	.	8gJ	.	.	.	.	.
.	.	.	.	2e	.	2a	.	.	.	.	.
.	.	.	.	.	.	.	.	.	.	4cc#i	.
1D	-re;"	2d	-re;">	4.f#X	-re;"	2a	-re;">	2r	.	2dd	-re;">
.	.	.	.	8g	.	.	.	.	.	.	.
.	.	2d	Ma'l	2a	.	4r	.	2dd	Ma'l	4r	.
.	.	.	.	.	.	4f	Ma'l	.	.	4a	Ma'l
=37	=37	=37	=37	=37	=37	=37	=37	=37	=37	=37	=37
0r	.	4c#X	va-	0r	.	4e	va-	4ee	va-	4.a	va-
.	.	4d	-ri-	.	.	4a	-ri-	4ff#X	-ri-	.	.
.	.	.	.	.	.	.	.	.	.	8a	-ri-
.	.	4G	-ar	.	.	4g	-ar	4gg	-ar	4bnX	-ar
.	.	4g	è	.	.	4g	è	4dd	è	4bni	è
.	.	4.f	co-	.	.	4.a	co-	4.ffnXi	co-	4.ccnXi	co-
.	.	8e	-sì	.	.	8g	-sì	8gg	-sì	8cc	-sì
.	.	4d	dol-	.	.	4a	dol-	4ff	dol-	4dd	dol-
.	.	4B-y	-ce e	.	.	4b-y	-ce e	4dd	-ce e	4ff	-ce e
=38	=38	=38	=38	=38	=38	=38	=38	=38	=38	=38	=38
0r	.	2f	va-	0r	.	2a	va-	2cc	va-	2ff	va-
.	.	4B-y	-go	.	.	4b-y	-go	4dd	-go,	4ff	-go,
.	.	4d	Che	.	.	4f	Che	4a	Che	4dd	Che
.	.	4g	d'al-	.	.	4g	d'al-	4b-y	d'al-	4dd	d'al-
.	.	4e-X	-tro io	.	.	4g	-tro io	4cc	-tro io	4cc	-tro io
.	.	4d	non	.	.	4f#X	non	4dd	non	4a	non
.	.	4cnXi	m'ap-	.	.	4g	m'ap-	4ee-X	m'ap-	4cc	m'ap-
=39	=39	=39	=39	=39	=39	=39	=39	=39	=39	=39	=39
2r	.	2d	-pa-	2r	.	2f#X	-pa-	2dd	-pa-	2a	-pa-
4r	.	4G	-go,	4r	.	4g	-go,	2bnX	-go,	2g	-go,
4G	Ma'l	4B-y	Ma'l	4d	Ma'l	4g	Ma'l	.	.	.	.
4F#X	va-	4A	va-	4d	va-	4a	va-	1r	.	1r	.
4G	-ri-	4d	-ri-	4d	-ri-	4bnX	-ri-	.	.	.	.
4C	-ar	4c	-ar	4e	-ar	4cc	-ar	.	.	.	.
4c	è	4c	è	4e	è	4g	è	.	.	.	.
=40	=40	=40	=40	=40	=40	=40	=40	=40	=40	=40	=40
4.B-y	co-	4.d	co-	4.f	co-	4.b-i	co-	1r	.	1r	.
8A	-sì	8c	-sì	8f	-sì	8cc	-sì	.	.	.	.
4B-y	dol-	4f	dol-	4d	dol-	4b-y	dol-	.	.	.	.
4G	-ce e	4g	-ce e	4d	-ce e	4b-y	-ce e	.	.	.	.
2A	va-	2e	va-	2c#X	va-	2a	va-	2r	.	2r	.
2D	-go	2f#X	-go	4d	-go	4a	-go	4r	.	4r	.
.	.	.	.	4d	Che	4a	Che	4dd	Che	4a	Che
=41	=41	=41	=41	=41	=41	=41	=41	=41	=41	=41	=41
1r	.	1r	.	4B-y	d'al-	4b-y	d'al-	4gg	d'al-	4dd	d'al-
.	.	.	.	4cnXi	-tro io	4g	-tro io	4ee-X	-tro io	4cc	-tro io
.	.	.	.	4d	non	4f#X	non	4dd	non	4a	non
.	.	.	.	4e-X	m'ap-	4g	m'ap-	4cc	m'ap-	4g	m'ap-
2r	.	2r	.	2d	-pa-	2f#X	-pa-	2dd	-pa-	2a	-pa-
4r	.	4r	.	4G	-go,	4g	-go,	2dd	-go,	4bnX	-go,
4D	Che	4A	Che	4d	Che	4f#X	Che	.	.	4dd	<Che
=42	=42	=42	=42	=42	=42	=42	=42	=42	=42	=42	=42
4G	d'al-	4B-y	d'al-	4d	d'al-	4.g	d'al-	1r	.	4b-i	d'al-
4E-X	-tro io	4G	-tro io	4c	-tro io	.	.	.	.	4cc	-tro io
.	.	.	.	.	.	8G	-tro io	.	.	.	.
4D	non	4A	non	4f	non	4d	non	.	.	4dd	non
4C	m'ap-	4c	m'ap-	4g	m'ap-	4G	m'ap-	.	.	4ee-X	m'ap-
2D	-pa-	2A	-pa-	2f#X	-pa-	2d	-pa-	2r	.	2dd	-pa-
4GG	-go,	2d	-go,	4g	-go,	2d	-go,	4r	.	4bnX	-go,>
4D	<Che	.	.	4fnXi	<Che	.	.	4a	<Che	4dd	<Che
=43	=43	=43	=43	=43	=43	=43	=43	=43	=43	=43	=43
4BB-y	d'al-	1r	.	4b-y	d'al-	0r	.	4dd	d'al-	4gg	d'al-
4C	-tro io	.	.	4g	-tro io	.	.	4cc	-tro io	4ee-X	-tro io
4D	non	.	.	4f#X	non	.	.	4a	non	4dd	non
4E-X	m'ap-	.	.	4g	m'ap-	.	.	4g	m'ap-	4cc	m'ap-
2D	-pa-	2r	.	2f#X	-pa-	.	.	2a	-pa-	2dd	-pa-
2G	-go,>	4r	.	4g	-go,>	.	.	4g	-go,>	4bnX	-go,>
.	.	4G	Ma'l	4g	Ma'l	.	.	4b-y	Ma'l	4dd	Ma'l
=44	=44	=44	=44	=44	=44	=44	=44	=44	=44	=44	=44
0r	.	4c	va-	4e	va-	0r	.	4.a	va-	4eenXi	va-
.	.	4d	-ri-	4a	-ri-	.	.	.	.	4ff#X	-ri-
.	.	.	.	.	.	.	.	8a	-ri-	.	.
.	.	4G	-ar	4g	-ar	.	.	4bnX	-ar	4gg	-ar
.	.	4g	è	4g	è	.	.	4bni	è	4dd	è
.	.	4.f	co-	4.a	co-	.	.	4.cc	co-	4.ffnXi	co-
.	.	8e	-sì	8g	-sì	.	.	8cc	-sì	8gg	-sì
.	.	4d	dol-	4a	dol-	.	.	4dd	dol-	4ff	dol-
.	.	4B-y	-ce e	4b-y	-ce e	.	.	4ff	-ce e	4dd	-ce e
=45	=45	=45	=45	=45	=45	=45	=45	=45	=45	=45	=45
0r	.	2f	va-	2a	va-	0r	.	2ff	va-	2cc	va-
.	.	4B-y	-go	4b-y	-go	.	.	4ff	-go	4dd	-go
.	.	4d	Che	4f	Che	.	.	4dd	Che	4a	Che
.	.	4g	d'al-	4g	d'al-	.	.	4dd	d'al-	4b-y	d'al-
.	.	4e-X	-tro io	4g	-tro io	.	.	4cc	-tro io	4cc	-tro io
.	.	4d	non	4f#X	non	.	.	4a	non	4dd	non
.	.	4c	m'ap-	4g	m'ap-	.	.	4cc	m'ap-	4ee-X	m'ap-
=46	=46	=46	=46	=46	=46	=46	=46	=46	=46	=46	=46
2r	.	2d	-pa-	2f#X	-pa-	2r	.	2a	-pa-	2dd	-pa-
4r	.	4G	-go,	4g	-go,	4r	.	2g	-go,	2bnX	-go,
4G	Ma'l	4B-y	Ma'l	4g	Ma'l	4d	Ma'l	.	.	.	.
4F#X	va-	4A	va-	4a	va-	4d	va-	1r	.	1r	.
4G	-ri-	4d	-ri-	4b-y	-ri-	4d	-ri-	.	.	.	.
4C	-ar	4c	-ar	4cc	-ar	4e	-ar	.	.	.	.
4c	è	4c	è	4g	è	4e	è	.	.	.	.
=47	=47	=47	=47	=47	=47	=47	=47	=47	=47	=47	=47
4.B-y	co-	4.d	co-	4.b-y	co-	4.f	co-	1r	.	1r	.
8A	-sì	8c	-sì	8cc	-sì	8f	-sì	.	.	.	.
4B-y	dol-	4f	dol-	4b-y	dol-	4d	dol-	.	.	.	.
4G	-ce e	4g	-ce e	4b-y	-ce e	4d	-ce e	.	.	.	.
2A	va-	2e	va-	2a	va-	2c#X	va-	2r	.	2r	.
2D	-go	2f#X	-go	4a	-go	4d	-go	4r	.	4r	.
.	.	.	.	4a	Che	4d	Che	4a	Che	4dd	Che
=48	=48	=48	=48	=48	=48	=48	=48	=48	=48	=48	=48
1r	.	1r	.	4b-y	d'al-	4B-y	d'al-	4dd	d'al-	4gg	da'l-
.	.	.	.	4g	-tro io	4cnXi	-tro io	4cc	-tro io	4ee-X	-tro io
.	.	.	.	4f#X	non	4d	non	4a	non	4dd	non
.	.	.	.	4g	m'ap-	4e-X	m'ap-	4g	m'ap-	4cc	m'ap-
2r	.	2r	.	2f#X	-pa-	2d	-pa-	2a	-pa-	2dd	-pa-
4r	.	4r	.	4g	-go,	4G	-go,	4bnX	-go,	2dd	-go,
4D	Che	4A	Che	4f#X	Che	4d	Che	4dd	<Che	.	.
=49	=49	=49	=49	=49	=49	=49	=49	=49	=49	=49	=49
4G	d'al-	4B-y	d'al-	4.g	d'al-	4d	d'al-	4b-i	d'al-	1r	.
4E-X	-tro io	4G	-tro io	.	.	4c	-tro io	4cc	-tro io	.	.
.	.	.	.	8G	-tro io	.	.	.	.	.	.
4D	non	4A	non	4d	non	4f	non	4dd	non	.	.
4C	m'ap-	4c	m'ap-	4G	m'ap-	4g	m'ap-	4ee-X	m'ap-	.	.
2D	-pa-	2A	-pa-	2d	-pa-	2f#X	-pa-	2dd	-pa-	2r	.
4G	-go,	4G	-go,	4d	-go,	4g	-go,	4bnX	-go,>	4r	.
4D	Che	4A	Che	4a	<Che	4fnXi	<Che	4dd	Che	4ff	<Che
=50	=50	=50	=50	=50	=50	=50	=50	=50	=50	=50	=50
2.BB-y	d'al-	4d	d'al-	2b-y	d'al-	4f	d'al-	2.dd	d'al-	2.ff	d'al-
.	.	4e	-tro io	.	.	4e	-tro io	.	.	.	.
.	.	1f	non	2b-y	-tro io	1d	non	.	.	.	.
4C	-tro io	.	.	.	.	.	.	4eenXi	-tro io	4ee	-tro io
2D	non	.	.	2a	non	.	.	4ff	non	2dd	non
.	.	.	.	.	.	.	.	4ff	m'ap-	.	.
2E-X	m'ap-	2c	m'ap-	2g	m'ap-	2G	m'ap-	[2gg	-pa-	2cc	m'ap-
=51	=51	=51	=51	=51	=51	=51	=51	=51	=51	=51	=51
1D	-pa-	8fL	-pa-	1a	-pa-	1d	-pa-	4gg]	.	1dd	-pa-
.	.	8e	.	.	.	.	.	.	.	.	.
.	.	8d	.	.	.	.	.	8ff#XL	.	.	.
.	.	8cJ	.	.	.	.	.	8eeJ	.	.	.
.	.	2d	.	.	.	.	.	2ff#i	.	.	.
1GGl	-go.	1dl	-go.	1gl	-go."	1BnXl	-go.>	1ggl	-go.	1ddl	-go.>
==	==	==	==	==	==	==	==	==	==	==	==
*-	*-	*-	*-	*-	*-	*-	*-	*-	*-	*-	*-
!!!system-decoration: [*]
!!!RDF**kern: i = editorial accidental
!!!RDF**kern: l = terminal long
!!!ENC: Emiliano Ricciardi
!!!END: 2019
!!!EED: Ricciardi, Emiliano
!!!EEV: 2019/02/22
!!!YEC: Copyright 2018 Emiliano Ricciardi, All Rights Reserved
!!!ONB: Translated from MusicXML on 2019/02/22 and edited by Craig Stuart Sapp
!!@@BEGIN:	VERSEDATA
!!@SOLERTI:	265
!!@CATALOGNUM:	Trm0265
!!@LAST_MODIFIED: 2020/07/12
!!@TITLE:		Mentre la donna mia cangiando aspetto
!!@GENRE:		madrigale
!!@MANUSRC:	E<sub>1</sub>, F<sub>2</sub>
!!@PRINTSRC:	28, 48, 54, 78, 141, 166, 169
!!@@BEGIN:	VERSES
!!@ABOUTIT:
!!@ABOUTEN:
!!@EDITOR:	Solerti, Angelo
!!@EDITION_TITLE: Le Rime di Torquato Tasso
!!@EDITION_LOC:	Bologna
!!@EDITION_PUB:	Romagnoli-Dall’Acqua
!!@EDITION_DATE:  1898-1902
!!@EDITION_VOL:	2
!!@EDITION_PAGE:  346
!!@TRANSLATOR:	Emiliano Ricciardi and Amyrose McCue Gill
!!@VERSE:
!!	Mentre la donna mia cangiando aspetto
!!	Di bianco nel vermiglio
!!	Mostra l'interno affetto
!!	E par or fresca rosa or vago giglio,
!!	Dico &mdash; se così muta il bel colore,
!!	Non è ferma nel core &mdash; :
!!	Ma 'l varïar è così dolce e vago
!!	Che d'altro io non m'appago.
!!@TVERSE:
!!	While my lady, changing [her] appearance
!!	From white to red,
!!	Shows her inner feeling
!!	And looks now like a fresh rose, now [like a] lovely lily,
!!	I say &mdash; if her beautiful color changes
!!	She is not firm in her heart &mdash;:
!!	But the variation is so sweet and lovely
!!	That I am not satisfied by anything else.
!!@@END:		VERSES
!!@OTHER_CRIT_ED:   None
!!@ATTRIBUTION_ABOUT:	Secure
!!		<br>
!!		Among other sources (see Literary Sources), this poem appears in the authoritative manuscript It. 385, Biblioteca Estense Universitaria, Modena.
!!@DATING:	Mid-1580s or earlier
!!@DEDICATEE:
!!@COMMENTARY:
!!@@END:		VERSEDATA
!!@@BEGIN:	SETTING
!!@CATALOGNUM:	Trm0265a
!!@RIMETITLE:	Mentre la donna mia cangiando aspetto
!!@SOLERTI:	265
!!@COMPOSER:	Hassler, Hans Leo
!!@PRINCEPSTITLE:	Madrigali a 5, 6, 7 & 8 voci
!!@PRINCEPSLOC:	Augusta
!!@NORMLOC:	Augsburg
!!@NORMPUB:	Valentin Schönigk
!!@NORMPUBSHORT:	Schönigk
!!@PRINCEPSPUB:	Schoenigk
!!@PRINCEPSYEAR:	1596
!!@PRINCEPSRISM:	H 2339
!!@REPRINTS:	1600-05a/06
!!@OVOICES:	6
!!@EXTANTVOICES:	6
!!@PARTBOOKS:	
!!@EXTPARTBOOKS:	
!!@OCLEFS:	G2,G2,C2,C2,C3,F3
!!@OMENSURATION:	C
!!@OKEYSIG:	b-
!!@FINAL:	G
!!@TIMPEDITOR:	Ricciardi, Emiliano
!!@NOTE:		
!!@@END:		SETTING
